src/assets/site/social_icons/linkedin.svg

<?xml version="1.0" encoding="UTF-8"?>
<svg width="40px" height="40px" viewBox="0 0 44 44" version="1.1" xmlns="http://www.w3.org/2000/svg" xmlns:xlink="http://www.w3.org/1999/xlink">
    <!-- Generator: Sketch 47.1 (45422) - http://www.bohemiancoding.com/sketch -->
    <title>linkedin</title>
    <desc>Created with Sketch.</desc>
    <defs>
        <circle id="path-1" cx="22" cy="22" r="22"></circle>
    </defs>
    <g id="Social-Icons" stroke="none" stroke-width="1" fill="none" fill-rule="evenodd">
        <g id="social-icons" transform="translate(-400.000000, -40.000000)">
            <g id="linkedin" transform="translate(400.000000, 40.000000)">
                <rect id="Rectangle" x="0" y="0" width="44" height="44"></rect>
                <g id="Oval">
                    <use fill="#2E3338" fill-rule="evenodd" xlink:href="#path-1"></use>
                    <circle stroke="#FBFBFB" stroke-width="2" cx="22" cy="22" r="21"></circle>
                </g>
                <path d="M12.5044685,18.4131131 L16.4026341,18.4131131 L16.4026341,31.9987194 L12.5044685,31.9987194 L12.5044685,18.4131131 Z M14.3541863,16.7137918 L14.3259643,16.7137918 C12.9148636,16.7137918 12,15.6752465 12,14.3600973 C12,13.0180561 12.9419097,12 14.3812324,12 C15.8193791,12 16.7036689,13.0154949 16.7318909,14.3562556 C16.7318909,15.6714048 15.8193791,16.7137918 14.3541863,16.7137918 L14.3541863,16.7137918 Z M32,32 L27.5797272,32 L27.5797272,24.9683698 C27.5797272,23.1281854 26.8882879,21.8732232 25.3678269,21.8732232 C24.2048448,21.8732232 23.5580903,22.7196824 23.2570555,23.537969 C23.1441675,23.8299398 23.1618062,24.2384428 23.1618062,24.6482264 L23.1618062,32 L18.7826905,32 C18.7826905,32 18.8391345,19.5451402 18.7826905,18.4131131 L23.1618062,18.4131131 L23.1618062,20.5452683 C23.420508,19.6130106 24.8198495,18.2824946 27.0529163,18.2824946 C29.8233772,18.2824946 32,20.2379306 32,24.4446152 L32,32 L32,32 Z" id="Shape" fill="#FBFBFB"></path>
            </g>
        </g>
    </g>
</svg>

<svg width="44" height="44" xmlns="http://www.w3.org/2000/svg" xmlns:xlink="http://www.w3.org/1999/xlink"><defs><circle id="a" cx="22" cy="22" r="22"/></defs><g fill="none" fill-rule="evenodd"><path d="M0 0h44v44H0z"/><g><use fill="#2E3338" xlink:href="#a"/><circle stroke="#FBFBFB" stroke-width="2" cx="22" cy="22" r="21"/></g><path d="M12.5 18.41h3.9V32h-3.9V18.4zm1.85-1.7h-.02A2.25 2.25 0 0 1 12 14.36c0-1.34.94-2.36 2.38-2.36s2.32 1.02 2.35 2.36c0 1.31-.91 2.35-2.38 2.35zM32 32h-4.42v-7.03c0-1.84-.7-3.1-2.21-3.1-1.17 0-1.81.85-2.11 1.67-.12.29-.1.7-.1 1.1V32h-4.38s.06-12.45 0-13.59h4.38v2.14c.26-.94 1.66-2.27 3.9-2.27 2.76 0 4.94 1.96 4.94 6.16V32z" fill="#FBFBFB"/></g></svg>
